icons/desktop/16/svg/applied-policy-16.svg

<svg width="16" height="16" viewBox="0 0 16 16" fill="none" xmlns="http://www.w3.org/2000/svg">
<g clip-path="url(#clip0_8069_32654)">
<path fill-rule="evenodd" clip-rule="evenodd" d="M4.41504 1.22585C6.34993 0.981872 8.31885 0.94788 10.2607 1.10085C9.91482 1.18787 9.59489 1.36046 9.33594 1.61941C9.08217 1.87426 8.91225 2.1879 8.82324 2.52663C7.41524 2.48463 5.99952 2.53813 4.60352 2.71413C3.97476 2.79335 3.5 3.32944 3.5 3.95828V11.0012H9.24902C10.214 11.0013 10.999 11.7863 10.999 12.7512V13.4651C10.999 13.6801 11.0881 13.8759 11.249 14.0178C11.4049 14.1547 11.5948 14.2194 11.8096 14.1995C11.8166 14.1975 11.8231 14.1975 11.8291 14.1975H11.8311C12.225 14.1475 12.5 13.8341 12.5 13.4661V6.42117C13.059 6.38917 13.58 6.17591 14 5.80691V13.4661C14 14.5881 13.1599 15.5399 12.0469 15.6809C12.0379 15.6829 12.0276 15.6838 12.0166 15.6848C10.3567 15.8938 8.66988 16.0003 7 16.0003C5.33011 16.0003 3.64225 15.8938 1.98535 15.6848C0.854502 15.5419 0.000226836 14.5803 0 13.4485V12.7503C0 11.7853 0.785 11.0003 1.75 11.0003H2V3.95828C2 2.57528 3.03804 1.40085 4.41504 1.22585ZM1.75 12.5003C1.612 12.5003 1.5 12.6123 1.5 12.7503V13.4485C1.50023 13.8273 1.78905 14.1495 2.17285 14.1975C4.66085 14.5115 7.19103 14.5796 9.70703 14.4036C9.57215 14.1117 9.50001 13.792 9.5 13.4641V12.7503C9.5 12.6123 9.388 12.5003 9.25 12.5003H1.75Z" fill="black"/>
<path d="M10 7.50027C10.4142 7.50027 10.75 7.83605 10.75 8.25027C10.7499 8.66437 10.4141 9.00027 10 9.00027H6C5.58587 9.00027 5.25013 8.66437 5.25 8.25027C5.25 7.83605 5.58579 7.50027 6 7.50027H10Z" fill="black"/>
<path d="M9.3877 4.50027L10.5859 5.69851C10.4489 5.87733 10.2428 6.00027 10 6.00027H6C5.58608 6.00027 5.25013 5.66416 5.25 5.25027C5.25 4.83627 5.586 4.50027 6 4.50027H9.3877Z" fill="black"/>
<path d="M14.7188 1.21999C15.0118 0.926994 15.4873 0.926994 15.7803 1.21999C16.073 1.51288 16.0729 1.98755 15.7803 2.28054L13.2422 4.81863C13.0063 5.05454 12.6923 5.18474 12.3584 5.18484C12.0244 5.18484 11.7096 5.05463 11.4736 4.81863L10.2188 3.56374C9.92609 3.2708 9.92606 2.79613 10.2188 2.5032C10.5118 2.2102 10.9873 2.2102 11.2803 2.5032L12.3584 3.58132L14.7188 1.21999Z" fill="black"/>
</g>
<defs>
<clipPath id="clip0_8069_32654">
<rect width="16" height="16" fill="white"/>
</clipPath>
</defs>
</svg>

<!-- This Source Code Form is subject to the terms of the Mozilla Public
   - License, v. 2.0. If a copy of the MPL was not distributed with this
   - file, You can obtain one at http://mozilla.org/MPL/2.0/. -->
<svg xmlns="http://www.w3.org/2000/svg" width="16" height="16" fill="context-fill" fill-opacity="context-fill-opacity" viewBox="0 0 16 16">
    <g clip-path="url(#clip0_8069_32654)">
        <path fill-rule="evenodd" d="M4.415 1.226a28.8 28.8 0 0 1 5.846-.125c-.346.087-.666.26-.925.518a2 2 0 0 0-.513.908 27 27 0 0 0-4.22.187A1.26 1.26 0 0 0 3.5 3.958v7.043h5.749c.965 0 1.75.785 1.75 1.75v.714c0 .215.09.41.25.553a.72.72 0 0 0 .56.181q.011-.002.02-.002h.002a.743.743 0 0 0 .669-.73V6.42a2.47 2.47 0 0 0 1.5-.614v7.66c0 1.121-.84 2.073-1.953 2.214l-.03.004C10.357 15.894 8.67 16 7 16s-3.358-.106-5.015-.315A2.266 2.266 0 0 1 0 13.448v-.698C0 11.785.785 11 1.75 11H2V3.958a2.76 2.76 0 0 1 2.415-2.732M1.75 12.5a.25.25 0 0 0-.25.25v.698c0 .38.29.701.673.75a38.7 38.7 0 0 0 7.534.206 2.2 2.2 0 0 1-.207-.94v-.714a.25.25 0 0 0-.25-.25z" clip-rule="evenodd" />
        <path d="M10 7.5A.75.75 0 0 1 10 9H6a.75.75 0 0 1 0-1.5zM9.388 4.5 10.586 5.7A.74.74 0 0 1 10 6H6a.75.75 0 0 1 0-1.5zM14.719 1.22a.75.75 0 0 1 1.061 1.06L13.242 4.82c-.236.236-.55.366-.884.366s-.648-.13-.884-.366l-1.255-1.255a.75.75 0 1 1 1.061-1.06l1.078 1.077z" />
    </g>
</svg>
